icon/lg/concourse.svg

<?xml version="1.0" encoding="UTF-8" standalone="no"?>
<svg viewBox="0 0 256 254" version="1.1" xmlns="http://www.w3.org/2000/svg" xmlns:xlink="http://www.w3.org/1999/xlink" preserveAspectRatio="xMidYMid" height="1em" width="1em">
  <g>
    <path d="M145.958788,150.375178 C155.75044,149.560436 163.027664,140.962254 162.212922,131.170602 C161.39818,121.37895 152.799998,114.101726 143.008346,114.916468 C133.216694,115.73121 125.93947,124.329392 126.754212,134.121044 C127.568954,143.912696 136.167136,151.18992 145.958788,150.375178 Z M166.687645,150.125541 C162.849244,154.363724 158.099441,157.675971 152.795779,159.812953 L152.754367,159.931919 C156.775544,175.395364 163.071097,190.175829 171.434974,203.789556 C164.12,207.676888 156.156804,210.196134 147.937015,211.223399 L146.775218,211.373988 L145.393561,211.478647 L142.625729,211.690225 C140.926328,211.690225 139.262316,211.846085 137.483103,211.742932 C130.485734,211.595287 123.548937,210.41082 116.899047,208.228177 C113.790387,207.23408 110.756596,206.019506 107.820769,204.593703 C105.161422,203.318488 102.582085,201.88273 100.097042,200.294378 C97.9791841,198.945871 95.9361873,197.483248 93.9770917,195.912981 C92.1752904,194.557677 90.7642683,193.184302 89.5392241,192.112859 C87.1983129,189.866066 85.9070094,188.508503 85.9070094,188.508503 C85.9070094,188.508503 86.9942644,190.018162 89.0309851,192.587969 C90.10544,193.821295 91.3432843,195.398718 92.970402,197.016048 C94.7464633,198.886704 96.6230749,200.659254 98.5919019,202.325828 C100.934795,204.316355 103.396444,206.162718 105.96325,207.854715 C108.843878,209.772508 111.856956,211.483483 114.979786,212.974752 C118.340241,214.600977 121.812645,215.984906 125.37045,217.115959 C129.08231,218.285215 132.875076,219.180118 136.718109,219.793437 C138.6321,220.165393 140.701197,220.288123 142.700271,220.534337 L145.48015,220.699232 L146.86256,220.779798 L148.450524,220.805398 C152.293974,220.844227 156.135209,220.605424 159.944255,220.090851 C166.47791,219.191847 172.877206,217.497708 178.999829,215.046109 C181.331454,218.21752 183.779284,221.301339 186.343318,224.297564 L185.98868,224.516672 L182.928705,226.40958 L182.507055,226.670099 L182.400136,226.736359 L182.37303,226.752924 C181.858768,227.009678 183.044659,226.42238 182.911387,226.487886 L182.855669,226.516498 L182.629785,226.631699 L181.701402,227.103044 L179.743741,228.097686 L178.715968,228.619478 L178.188906,228.886774 L177.922363,229.021552 L177.856103,229.055434 L177.822221,229.072752 C177.729608,229.111905 178.510414,228.790397 178.163306,228.93421 L178.025516,228.994446 L175.755382,229.991347 L173.366282,231.040955 L173.059833,231.175732 L173.021433,231.192297 C173.548495,231.00406 173.146422,231.149379 173.25334,231.110979 L173.177293,231.146367 L173.019927,231.208109 L172.387452,231.455828 L171.099913,231.958797 C159.417197,236.454985 146.950086,238.557674 134.43894,238.141995 L132.812575,238.083265 L130.975385,237.937946 L127.290464,237.642791 C125.004518,237.281377 122.719325,237.123258 120.373896,236.609748 C111.102592,234.933024 102.130436,231.893589 93.7489489,227.5902 C91.7159929,226.574475 89.7545668,225.506797 87.8947886,224.348012 C85.9807981,223.271298 84.2219147,222.043995 82.4863727,220.870151 C79.2385701,218.628318 76.1297189,216.191576 73.1769401,213.573345 C70.663915,211.352724 68.2733049,208.997303 66.0156643,206.517482 C63.9247314,204.352007 62.349567,202.253545 60.9603804,200.589533 C59.6088411,198.897662 58.6736814,197.472334 57.973441,196.542444 L56.928351,195.094528 L57.8258634,196.639575 C58.4282208,197.634217 59.2180618,199.158181 60.3979292,200.9901 C61.615444,202.797172 62.9895717,205.07333 64.8719383,207.470712 C66.9069677,210.222272 69.0897016,212.86146 71.4105272,215.376652 C74.1670072,218.373707 77.1026069,221.200935 80.2011795,223.842785 C81.8666976,225.237242 83.5668511,226.697205 85.4356648,228.018627 C87.2502662,229.421366 89.1815744,230.744294 91.1957068,232.024303 C95.3300715,234.700144 99.6501627,237.077465 104.123048,239.138143 C108.779696,241.267794 113.586368,243.052806 118.504329,244.478794 C120.946135,245.276917 123.593496,245.767086 126.140714,246.413867 L129.784976,247.083236 L131.598072,247.414533 L133.622746,247.703665 C138.611794,248.378073 143.642978,248.691862 148.677161,248.642589 C157.713621,248.540367 166.700094,247.285358 175.418815,244.907974 L176.750778,244.538277 L177.405841,244.356817 L178.320671,244.065426 L180.805395,243.263538 L183.164377,242.502309 L185.724396,241.514443 L187.772411,240.723849 L188.743712,240.347376 L188.98089,240.256269 L189.03962,240.233681 L189.66306,239.925725 L189.776002,239.87076 L190.221746,239.653912 L193.459417,238.081759 L197.503494,236.116568 C200.251749,238.746611 203.083581,241.297594 206.022332,243.737141 C206.022332,243.737141 220.02187,258.153058 227.732796,252.223603 C234.982167,246.651798 226.631235,229.175153 226.631235,229.175153 C215.412764,197.202646 194.447311,169.554804 166.687645,150.125541 Z M117.853031,126.432568 L117.771712,126.335438 C102.581249,121.856591 86.8141632,119.638472 70.9775829,119.752426 C71.4477474,111.137609 73.5535752,102.691045 77.1826163,94.8637736 L77.6720317,93.79986 L78.3127893,92.5725569 L79.5995751,90.1126801 C80.4993464,88.6715402 81.2485283,87.1761881 82.2793123,85.7222481 C86.1116392,79.8656715 90.7914223,74.6098917 96.1659077,70.1264638 C98.6556036,68.0167927 101.292586,66.0873667 104.056789,64.3528688 C106.547843,62.7744534 109.132445,61.3487605 111.796328,60.0836612 C114.06216,59.0016996 116.385169,58.0437912 118.755061,57.2141814 C120.863311,56.4062697 122.771278,55.9341721 124.326866,55.4635804 C127.47343,54.6624452 129.31062,54.2859719 129.31062,54.2859719 C129.31062,54.2859719 127.454606,54.4079492 124.1951,54.7746342 C122.58003,55.032142 120.58698,55.2459789 118.352987,55.7692768 C115.825364,56.2858513 113.327673,56.9393682 110.870956,57.7269381 C107.941424,58.6596606 105.071188,59.7692842 102.27607,61.0496918 C99.1237255,62.4770669 96.076674,64.1263999 93.1578858,65.9852572 C89.9974137,67.9732402 86.9832047,70.1847674 84.1383376,72.6029054 C81.1801693,75.1319781 78.4119062,77.8750752 75.8559243,80.8100241 C74.5254676,82.2361051 73.3260235,83.9264703 72.0588143,85.4910935 L70.4460025,87.7612277 L69.6456202,88.8906477 L68.7819904,90.2241162 C66.712936,93.4631762 64.8805168,96.8474396 63.2990328,100.350496 C60.4592415,106.664952 58.4399722,113.317154 57.2905184,120.144711 L57.2445886,120.420289 C53.3834781,120.774174 49.5376775,121.268107 45.7071868,121.902088 L45.7162222,119.888709 L45.7320341,116.290377 L45.7320341,115.794185 L45.7320341,115.638325 C45.7869992,115.066086 45.6567394,116.382236 45.6717983,116.235412 L45.677069,116.172917 L45.6989044,115.919927 L45.7915169,114.88312 L45.9842712,112.699574 L46.085919,111.551331 L46.1378723,110.964032 L46.1642255,110.667371 L46.170249,110.592077 L46.1740138,110.554429 C46.1890727,110.45504 46.0482717,111.287046 46.1107662,110.917349 L46.1318488,110.76676 L46.4887455,108.31366 L46.8652188,105.731053 L46.9134074,105.399003 L46.919431,105.357591 C46.7974536,105.906489 46.890066,105.485592 46.8652188,105.597781 L46.8810307,105.514957 L46.9119015,105.349309 L47.0376436,104.681445 L47.2936455,103.326141 C49.6692467,91.035379 54.4907004,79.3473867 61.4716312,68.9563847 L62.3834496,67.6078572 L63.47974,66.1268111 L65.682109,63.1579424 C67.1992965,61.4111062 68.5433063,59.5558456 70.2223774,57.8391272 C76.5561926,50.864417 83.8869138,44.8650087 91.9765124,40.0357032 C93.9138442,38.8513181 95.8594584,37.752016 97.826908,36.7882443 C99.7552045,35.7341189 101.727172,34.8938305 103.641915,34.0430007 C107.263828,32.4762502 110.977397,31.1305247 114.762184,30.0132302 C117.977038,29.0587605 121.24135,28.2795685 124.540703,27.6790955 C127.484724,27.0526439 130.098955,26.8290187 132.247112,26.5316048 C134.400539,26.2763559 136.104458,26.2379556 137.261737,26.1370607 L139.043962,26.0180951 L137.261737,25.9548476 C136.099187,25.9375299 134.386986,25.8042583 132.209465,25.8306114 C130.034955,25.9059061 127.373288,25.865247 124.342678,26.1920258 C120.930653,26.4596097 117.53565,26.9120421 114.172627,27.5473298 C110.17058,28.297542 106.21765,29.2894833 102.335553,30.5177044 C100.270973,31.1953564 98.1318514,31.8602083 96.0213419,32.7456736 C93.8701733,33.5415382 91.7250283,34.4774509 89.5723537,35.5089879 C85.1127596,37.5977046 80.8080084,40.0022056 76.6909422,42.7041462 C72.4171916,45.5258033 68.3561935,48.6571784 64.5406418,52.0730616 C62.5709333,53.7205089 60.7525671,55.7067822 58.8543886,57.5251484 L56.3561115,60.2613566 L55.1152554,61.625696 L53.7975988,63.1895662 C50.581952,67.0642008 47.6501422,71.165866 45.0250172,75.4625968 C40.3243105,83.1810103 36.6280903,91.4679016 34.0259722,100.122353 L33.633687,101.447539 L33.4409327,102.099591 L33.2037545,103.030233 L32.5667616,105.56164 L31.9644043,107.965799 C31.7867089,108.891923 31.6137821,109.790941 31.445624,110.662854 L31.0307504,112.81854 L30.8342313,113.840288 L30.7860427,114.090267 L30.7739956,114.152008 L30.7054774,114.843213 L30.6919244,114.968203 L30.6399711,115.461383 L30.2582271,119.039385 C29.9081069,122.32148 29.6739405,124.527613 29.5805751,125.401785 C25.8572539,126.412992 22.1595328,127.542412 18.5024708,128.823174 C18.5024708,128.823174 -1.0643542,133.396572 0.0454891859,143.059137 C1.08907327,152.144944 20.3675197,153.988158 20.3675197,153.988158 C53.55118,160.843849 88.0494361,157.117247 119.003533,143.333209 C117.345941,137.859329 116.952556,132.080587 117.853031,126.432568 L117.853031,126.432568 Z M255.649047,115.934233 C255.214825,110.831678 254.407005,105.767835 253.232088,100.78344 C252.727614,98.2648337 251.851937,95.7183681 251.163744,93.178679 L249.959029,89.6759711 L249.356672,87.9344054 L248.614266,86.0286974 C246.749842,81.3520352 244.550291,76.8160445 242.03276,72.4560808 C237.502692,64.6365822 231.993309,57.427119 225.638099,51.0023714 L224.659268,50.0235408 L224.178888,49.5424079 L223.47413,48.8933678 L221.555622,47.1239432 L219.733491,45.4433662 L217.613193,43.6972829 L215.91831,42.3020727 L215.116422,41.6402326 L214.920656,41.4783491 L214.871714,41.4384429 L214.297216,41.0476636 L214.194062,40.9761336 L213.786718,40.6937786 L210.824626,38.6487755 L206.855091,35.9050378 C207.879601,31.8265767 208.745991,27.7036918 209.454263,23.5363829 C210.162535,19.3690741 214.916891,4.1984537 205.922943,0.496214936 C197.467352,-2.98541045 186.52779,12.9951296 186.52779,12.9951296 C164.47579,38.722175 151.049669,70.7185999 148.14031,104.47815 C153.731286,105.676668 158.977478,108.128049 163.483857,111.647708 L163.608094,111.623613 C174.594137,100.775535 183.966252,88.4067567 191.437755,74.895628 C198.606421,79.3931282 204.872168,85.1897808 209.912808,91.9875173 L210.612295,92.9264418 L211.384065,94.0761914 L212.928359,96.382467 C213.76413,97.8620072 214.71736,99.235382 215.502684,100.836147 C218.81281,107.001981 221.190128,113.624673 222.557041,120.488055 C223.217841,123.684894 223.650122,126.924737 223.850603,130.182996 C224.046436,133.125528 224.063534,136.077233 223.901804,139.021837 C223.768155,141.529134 223.498454,144.027324 223.093892,146.505374 C222.792713,148.742378 222.295769,150.64658 221.964472,152.237557 C221.158066,155.381109 220.609168,157.172369 220.609168,157.172369 C220.609168,157.172369 221.390727,155.48351 222.626312,152.446123 C223.172951,150.904088 223.937945,149.051839 224.547079,146.839682 C225.303257,144.373524 225.924605,141.868026 226.408363,139.33431 C226.990607,136.315607 227.388897,133.264316 227.601031,130.197302 C227.855072,126.74626 227.86413,123.281549 227.628137,119.829226 C227.393694,116.102512 226.892962,112.397343 226.129773,108.742087 C225.32419,104.934681 224.239527,101.191716 222.884573,97.5435108 C222.268662,95.6935208 221.357597,93.8307308 220.589591,91.9717055 L219.366806,89.4696637 L218.757672,88.2265487 L218.000208,86.8313386 C216.144822,83.4650855 214.048949,80.2371034 211.728915,77.1725387 C207.621406,71.7693118 202.851561,66.9033412 197.531353,62.6888566 C199.179302,59.0124691 200.689211,55.2771006 202.06108,51.4827514 L202.681508,51.8163068 L205.834096,53.5480841 L206.268546,53.7875212 L206.379229,53.8477569 L206.407088,53.8628158 C206.88295,54.1843241 205.789672,53.4411657 205.910896,53.5239898 L205.963602,53.5586254 L206.17518,53.6994264 L207.041822,54.2761835 L208.866965,55.4944513 L209.826972,56.13295 L210.318646,56.4597289 L210.566365,56.6246242 L210.62886,56.6660363 L210.660484,56.6871188 C210.740296,56.7481075 210.07695,56.2270684 210.371352,56.4612348 L210.492577,56.5515884 L212.481109,58.0348933 L214.570536,59.5995165 L214.838585,59.8005532 L214.872467,59.8261534 C214.448558,59.4572096 214.773831,59.7388116 214.68649,59.6635169 L214.751996,59.7169762 L214.883009,59.8238946 L215.410071,60.2538271 L216.481514,61.1272453 C226.139144,69.0921336 234.097718,78.9165508 239.884603,90.0170559 L240.632279,91.4627135 L241.408567,93.1342551 L242.963402,96.4886325 C243.771313,98.6571189 244.756921,100.72471 245.462432,103.020445 C248.558895,111.918805 250.321559,121.226393 250.693152,130.640787 C250.806847,132.908663 250.843741,135.143408 250.746611,137.332224 C250.746611,139.52857 250.544822,141.663927 250.376162,143.751848 C250.019787,147.682003 249.425374,151.586925 248.596196,155.445109 C247.897499,158.7252 247.021032,161.964888 245.970671,165.149839 C245.113064,168.035131 244.058939,170.438536 243.293192,172.466222 C242.483775,174.475084 241.701463,175.989259 241.236142,177.059196 L240.488466,178.680291 L241.395767,177.145032 C241.9665,176.132319 242.90166,174.694944 243.92115,172.7674 C244.892451,170.821033 246.203331,168.503463 247.365128,165.685937 C248.761678,162.561261 249.987523,159.363055 251.037249,156.105444 C252.292525,152.232068 253.311876,148.286169 254.089694,144.289452 C254.485744,142.153342 254.917936,139.954738 255.153608,137.67858 C255.484152,135.409199 255.686694,133.077323 255.811684,130.693494 C256.108673,125.776136 256.054323,120.843852 255.649047,115.934233 L255.649047,115.934233 Z" fill="#4DA9E1"/>
  </g>
</svg>

<svg width="256" height="254" xmlns="http://www.w3.org/2000/svg" preserveAspectRatio="xMidYMid"><path d="M145.959 150.375c9.791-.815 17.069-9.413 16.254-19.204-.815-9.792-9.413-17.07-19.205-16.255-9.791.815-17.069 9.413-16.254 19.205.815 9.792 9.413 17.069 19.205 16.254Zm20.729-.25a37.804 37.804 0 0 1-13.892 9.688l-.042.119a161.362 161.362 0 0 0 18.681 43.858 68.058 68.058 0 0 1-23.498 7.433l-1.162.151-1.381.105-2.768.211c-1.7 0-3.364.156-5.143.053a70.794 70.794 0 0 1-20.584-3.515 68.633 68.633 0 0 1-9.078-3.634 72.746 72.746 0 0 1-7.724-4.3 69.29 69.29 0 0 1-6.12-4.381c-1.802-1.355-3.213-2.729-4.438-3.8-2.34-2.247-3.632-3.604-3.632-3.604s1.087 1.51 3.124 4.079c1.074 1.233 2.312 2.81 3.94 4.428a71.053 71.053 0 0 0 5.62 5.31 75.911 75.911 0 0 0 7.372 5.529 73.156 73.156 0 0 0 9.017 5.12 78.339 78.339 0 0 0 10.39 4.141 79.436 79.436 0 0 0 11.348 2.677c1.914.372 3.983.495 5.982.741l2.78.165 1.383.08 1.588.026a79.83 79.83 0 0 0 11.493-.714A80.946 80.946 0 0 0 179 215.046a159.895 159.895 0 0 0 7.343 9.252l-.354.219-3.06 1.893-.422.26-.107.066-.027.017c-.514.257.672-.33.538-.265l-.055.028-.226.116-.929.471-1.957.995-1.028.521-.527.268-.267.135-.066.033-.034.018c-.092.039.688-.283.341-.139l-.137.06-2.27.997-2.39 1.05-.306.135-.039.016c.527-.188.125-.043.232-.081l-.076.035-.157.062-.633.248-1.287.503a93.432 93.432 0 0 1-36.661 6.183l-1.626-.059-1.838-.145-3.685-.295c-2.285-.362-4.57-.52-6.916-1.033a95.502 95.502 0 0 1-26.625-9.02c-2.033-1.016-3.994-2.083-5.854-3.242-1.914-1.077-3.673-2.304-5.409-3.478a97.606 97.606 0 0 1-9.31-7.297 92.654 92.654 0 0 1-7.16-7.056c-2.091-2.165-3.666-4.263-5.056-5.927-1.351-1.692-2.286-3.118-2.987-4.048l-1.045-1.447.898 1.545c.602.994 1.392 2.518 2.572 4.35 1.217 1.807 2.592 4.083 4.474 6.48a94.672 94.672 0 0 0 6.539 7.907 100.772 100.772 0 0 0 8.79 8.466c1.666 1.394 3.366 2.854 5.235 4.176 1.814 1.402 3.746 2.725 5.76 4.005a103.491 103.491 0 0 0 12.927 7.114 104.652 104.652 0 0 0 14.381 5.34c2.442.799 5.09 1.29 7.637 1.936l3.644.67 1.813.33 2.025.29c4.989.674 10.02.988 15.054.939a106.219 106.219 0 0 0 26.742-3.735l1.332-.37.655-.181.915-.292 2.484-.801 2.36-.762 2.56-.988 2.047-.79.972-.377.237-.09.059-.023.623-.308.113-.055.446-.217 3.237-1.572 4.044-1.965c2.749 2.63 5.58 5.18 8.52 7.62 0 0 13.999 14.416 21.71 8.487 7.25-5.572-1.102-23.049-1.102-23.049a161.928 161.928 0 0 0-59.943-79.05Zm-48.835-23.692-.081-.098a161.356 161.356 0 0 0-46.794-6.583 67.977 67.977 0 0 1 6.205-24.888l.489-1.064.64-1.227 1.288-2.46c.9-1.441 1.649-2.937 2.68-4.39a70.78 70.78 0 0 1 13.886-15.597 68.636 68.636 0 0 1 7.89-5.773 72.847 72.847 0 0 1 7.74-4.27 69.24 69.24 0 0 1 6.96-2.869c2.107-.808 4.015-1.28 5.57-1.75 3.147-.802 4.985-1.178 4.985-1.178s-1.856.122-5.116.489c-1.615.257-3.608.471-5.842.994a71.229 71.229 0 0 0-7.482 1.958 76 76 0 0 0-8.595 3.323 73.127 73.127 0 0 0-9.118 4.935 78.29 78.29 0 0 0-9.02 6.618 79.42 79.42 0 0 0-8.282 8.207c-1.33 1.426-2.53 3.116-3.797 4.681l-1.613 2.27-.8 1.13-.864 1.333a79.826 79.826 0 0 0-5.483 10.126 81.077 81.077 0 0 0-6.008 19.795l-.046.275c-3.862.354-7.707.848-11.538 1.482l.01-2.013.015-3.599v-.652c.055-.572-.075.744-.06.597l.005-.062.022-.253.093-1.037.192-2.183.102-1.149.052-.587.026-.297.006-.075.004-.038c.015-.099-.126.733-.063.363l.02-.15.358-2.453.376-2.583.048-.332.006-.041c-.122.548-.029.128-.054.24l.016-.083.03-.166.127-.668.256-1.355a93.424 93.424 0 0 1 14.178-34.37l.911-1.348 1.097-1.481 2.202-2.97c1.517-1.746 2.861-3.601 4.54-5.318a95.532 95.532 0 0 1 21.755-17.803c1.937-1.185 3.882-2.284 5.85-3.248 1.928-1.054 3.9-1.894 5.815-2.745a97.637 97.637 0 0 1 11.12-4.03 92.636 92.636 0 0 1 9.779-2.334c2.944-.626 5.558-.85 7.706-1.147 2.154-.256 3.857-.294 5.015-.395l1.782-.119-1.782-.063c-1.163-.017-2.875-.15-5.053-.124-2.174.075-4.836.034-7.866.361a94.66 94.66 0 0 0-10.17 1.355 100.83 100.83 0 0 0-11.837 2.97c-2.065.678-4.204 1.343-6.315 2.229-2.15.796-4.296 1.731-6.449 2.763a103.444 103.444 0 0 0-12.881 7.195 104.715 104.715 0 0 0-12.15 9.37c-1.97 1.647-3.788 3.633-5.687 5.451l-2.498 2.736-1.24 1.365-1.318 1.564a104.648 104.648 0 0 0-8.773 12.273 106.193 106.193 0 0 0-10.999 24.66l-.392 1.325-.193.652-.237.93-.637 2.532-.603 2.404-.518 2.697-.415 2.156-.197 1.021-.048.25-.012.062-.069.691-.013.125-.052.493-.382 3.578-.677 6.363a161.76 161.76 0 0 0-11.079 3.421S-1.064 133.397.045 143.06c1.044 9.086 20.323 10.93 20.323 10.93a161.932 161.932 0 0 0 98.636-10.656 37.787 37.787 0 0 1-1.151-16.9Zm137.796-10.499a104.75 104.75 0 0 0-2.417-15.15c-.504-2.52-1.38-5.066-2.068-7.605l-1.205-3.503-.602-1.742-.743-1.905a104.627 104.627 0 0 0-6.581-13.573 106.225 106.225 0 0 0-16.395-21.454l-.979-.978-.48-.482-.705-.649-1.918-1.77-1.823-1.68-2.12-1.746-1.695-1.395-.802-.662-.195-.162-.05-.04-.574-.39-.103-.072-.407-.282-2.962-2.045-3.97-2.744a162.522 162.522 0 0 0 2.6-12.369c.708-4.167 5.462-19.338-3.532-23.04-8.456-3.481-19.395 12.5-19.395 12.5a161.935 161.935 0 0 0-38.388 91.482 37.798 37.798 0 0 1 15.344 7.17l.124-.024a161.346 161.346 0 0 0 27.83-36.728 67.97 67.97 0 0 1 18.475 17.092l.7.938.771 1.15 1.544 2.306c.836 1.48 1.79 2.853 2.575 4.454a70.773 70.773 0 0 1 7.054 19.652 68.753 68.753 0 0 1 1.294 9.695 72.9 72.9 0 0 1 .05 8.839 69.358 69.358 0 0 1-.807 7.483c-.301 2.237-.798 4.142-1.13 5.733-.806 3.143-1.355 4.934-1.355 4.934s.782-1.688 2.017-4.726c.547-1.542 1.312-3.394 1.921-5.606a71.067 71.067 0 0 0 1.861-7.506c.583-3.018.98-6.07 1.193-9.137.254-3.45.263-6.915.027-10.368a78.299 78.299 0 0 0-1.498-11.087 79.33 79.33 0 0 0-3.245-11.198c-.616-1.85-1.527-3.713-2.295-5.572l-1.223-2.502-.61-1.243L218 86.83a79.9 79.9 0 0 0-6.271-9.658 81.062 81.062 0 0 0-14.198-14.484 162.294 162.294 0 0 0 4.53-11.206l.62.333 3.153 1.732.435.24.11.06.028.015c.476.321-.617-.422-.496-.339l.053.035.211.14.867.577 1.825 1.218.96.639.492.327.247.165.063.041.031.021c.08.061-.583-.46-.289-.226l.122.09 1.988 1.484 2.09 1.565.268.2.033.026c-.423-.369-.098-.087-.186-.162l.066.053.131.107.527.43 1.072.873a93.432 93.432 0 0 1 23.403 28.89l.747 1.446.777 1.671 1.554 3.355c.808 2.168 1.794 4.236 2.5 6.531a95.502 95.502 0 0 1 5.23 27.62c.114 2.269.15 4.503.054 6.692 0 2.197-.202 4.332-.37 6.42a97.599 97.599 0 0 1-1.78 11.693 92.55 92.55 0 0 1-2.626 9.705c-.858 2.885-1.912 5.289-2.678 7.316-.81 2.01-1.592 3.523-2.057 4.593l-.748 1.621.908-1.535c.57-1.013 1.506-2.45 2.525-4.378.971-1.946 2.282-4.264 3.444-7.081a94.543 94.543 0 0 0 3.672-9.58 100.765 100.765 0 0 0 3.053-11.817c.396-2.136.828-4.334 1.064-6.61.33-2.27.533-4.602.658-6.986.297-4.917.242-9.85-.163-14.759Z" fill="#4DA9E1"/></svg>
